apps/symbolic/utilities-terminal-symbolic.svg

<?xml version="1.0" encoding="UTF-8" standalone="no"?>
<svg
   xmlns:dc="http://purl.org/dc/elements/1.1/"
   xmlns:cc="http://creativecommons.org/ns#"
   xmlns:rdf="http://www.w3.org/1999/02/22-rdf-syntax-ns#"
   xmlns:svg="http://www.w3.org/2000/svg"
   xmlns="http://www.w3.org/2000/svg"
   version="1.1"
   width="16"
   height="16"
   id="svg4060">
  <defs
     id="defs4062" />
  <metadata
     id="metadata4065">
    <rdf:RDF>
      <cc:Work
         rdf:about="">
        <dc:format>image/svg+xml</dc:format>
        <dc:type
           rdf:resource="http://purl.org/dc/dcmitype/StillImage" />
        <dc:title />
      </cc:Work>
    </rdf:RDF>
  </metadata>
  <path
     style="color:#000000;display:inline;overflow:visible;visibility:visible;fill:#bebebe;fill-opacity:1;fill-rule:nonzero;stroke:none;stroke-width:1;marker:none;enable-background:accumulate"
     d="M 2.5 1 C 1.6689999 1 1 1.669 1 2.5 L 1 13.5 C 1 14.331 1.6689998 15 2.5 15 L 13.5 15 C 14.331 15 15 14.331 15 13.5 L 15 2.5 C 15 1.669 14.331 1 13.5 1 L 2.5 1 z M 4.0136719 3 L 5.0136719 3 L 5.0136719 3.9414062 C 5.1213259 3.9534844 5.2346836 3.9517371 5.3378906 3.9746094 C 5.5630532 4.024029 5.797172 4.0949167 6.0390625 4.1835938 A 0.11763009 0.09944686 0 0 1 6.0996094 4.3125 L 5.7851562 4.953125 A 0.11763009 0.09944686 0 0 1 5.6328125 5.0078125 C 5.3908799 4.9239004 5.1921345 4.8659164 5.0390625 4.8339844 C 4.8874065 4.8019314 4.738078 4.7851562 4.59375 4.7851562 C 4.427553 4.7851573 4.3175437 4.8184027 4.2460938 4.8710938 C 4.1711127 4.9263943 4.1386719 4.9869371 4.1386719 5.0800781 C 4.1386719 5.1370169 4.1522975 5.1784719 4.1796875 5.2167969 C 4.2081515 5.2547922 4.2607575 5.3023143 4.3359375 5.3476562 L 4.3378906 5.3476562 C 4.4108946 5.3885895 4.6188863 5.4811525 4.9414062 5.6113281 C 5.3803663 5.7887348 5.6897886 5.9665511 5.8691406 6.1640625 C 6.0457691 6.3566182 6.1308594 6.5941987 6.1308594 6.8652344 C 6.1308594 7.2404974 5.9626628 7.5537611 5.6367188 7.7734375 C 5.4641142 7.8905882 5.2522809 7.9700255 5.0136719 8.0234375 L 5.0136719 9 L 4.0136719 9 L 4.0136719 8.0722656 C 3.6325579 8.0458456 3.2753766 7.9846239 2.9628906 7.8554688 A 0.11763009 0.09944686 0 0 1 2.8964844 7.765625 L 2.8964844 6.9980469 A 0.11763009 0.09944686 0 0 1 3.0625 6.9082031 C 3.369529 7.0239568 3.6255021 7.1046216 3.8300781 7.1503906 C 4.0384801 7.1965746 4.2266361 7.2207031 4.3925781 7.2207031 C 4.5914901 7.2207031 4.7293631 7.1847705 4.8144531 7.1328125 C 4.9002861 7.0813585 4.9414062 7.018761 4.9414062 6.90625 C 4.9414063 6.8491339 4.9216656 6.8065639 4.8847656 6.7636719 A 0.11763009 0.09944686 0 0 0 4.8847656 6.7617188 C 4.8449236 6.714 4.7823794 6.6629182 4.6933594 6.6132812 A 0.11763009 0.09944686 0 0 0 4.6914062 6.6132812 C 4.6093003 6.5665025 4.4098641 6.4774388 4.1113281 6.3574219 C 3.8240901 6.2432525 3.606844 6.1320315 3.453125 6.0195312 C 3.302024 5.908947 3.1788206 5.780802 3.0878906 5.6328125 C 2.9941026 5.4801697 2.9511719 5.3028583 2.9511719 5.1074219 C 2.9511719 4.7408866 3.1016058 4.4361364 3.4023438 4.2207031 C 3.5706008 4.101086 3.7800369 4.0229491 4.0136719 3.9707031 L 4.0136719 3 z M 7 9 L 11 9 L 11 10 L 7 10 L 7 9 z "
     id="path3891" />
</svg>

<?xml version="1.0" encoding="UTF-8" standalone="no"?>
<svg
   xmlns:dc="http://purl.org/dc/elements/1.1/"
   xmlns:cc="http://creativecommons.org/ns#"
   xmlns:rdf="http://www.w3.org/1999/02/22-rdf-syntax-ns#"
   xmlns:svg="http://www.w3.org/2000/svg"
   xmlns="http://www.w3.org/2000/svg"
   id="svg4"
   version="1.1"
   width="16"
   height="16">
  <metadata
     id="metadata10">
    <rdf:RDF>
      <cc:Work
         rdf:about="">
        <dc:format>image/svg+xml</dc:format>
        <dc:type
           rdf:resource="http://purl.org/dc/dcmitype/StillImage" />
      </cc:Work>
    </rdf:RDF>
  </metadata>
  <defs
     id="defs8" />
  <path
     id="path2"
     fill="#666"
     overflow="visible"
     color="#000"
     style="marker:none"
     d="M2.5 1C1.669 1 1 1.669 1 2.5v11c0 .831.669 1.5 1.5 1.5h11c.831 0 1.5-.669 1.5-1.5v-11c0-.831-.669-1.5-1.5-1.5zm1.514 2h1v.941c.107.013.22.01.324.034.225.049.46.12.701.209a.118.1 0 0 1 .06.128l-.314.641a.118.1 0 0 1-.152.055 5.054 5.054 0 0 0-.594-.174 2.162 2.162 0 0 0-.445-.049c-.166 0-.276.033-.348.086a.235.235 0 0 0-.107.21.22.22 0 0 0 .04.136.562.562 0 0 0 .157.13h.002c.073.042.28.134.603.264.44.178.749.356.928.553.177.193.262.43.262.701 0 .376-.168.689-.494.908a1.807 1.807 0 0 1-.623.25V9h-1v-.928c-.381-.026-.739-.087-1.051-.217a.118.1 0 0 1-.067-.09v-.767a.118.1 0 0 1 .167-.09c.307.116.563.197.767.242.208.047.397.07.563.07.198 0 .336-.035.421-.087.086-.052.127-.114.127-.227 0-.057-.02-.1-.056-.142a.118.1 0 0 0 0-.002.678.678 0 0 0-.192-.149.118.1 0 0 0-.002 0 6.11 6.11 0 0 0-.58-.256 3.034 3.034 0 0 1-.658-.338 1.37 1.37 0 0 1-.365-.386.986.986 0 0 1-.137-.526c0-.366.15-.67.451-.886.169-.12.378-.198.612-.25zM7 9h4v1H7z" />
</svg>
